icons/24x24_datagrid_outline.svg

<svg xmlns="http://www.w3.org/2000/svg" width="24" height="24" viewBox="0 0 24 24">
  <path fill-rule="evenodd" d="M6,12 L18,12 L18,8 L6,8 L6,12 Z M6,14 L6,18 L18,18 L18,14 L6,14 Z M5,4 L19,4 C19.5522847,4 20,4.44771525 20,5 L20,19 C20,19.5522847 19.5522847,20 19,20 L5,20 C4.44771525,20 4,19.5522847 4,19 L4,5 C4,4.44771525 4.44771525,4 5,4 Z"/>
</svg>

<svg width="24" height="24" fill="none" xmlns="http://www.w3.org/2000/svg"><path fill-rule="evenodd" clip-rule="evenodd" d="M6 12h12V8H6v4Zm0 2v4h12v-4H6ZM5 4h14a1 1 0 0 1 1 1v14a1 1 0 0 1-1 1H5a1 1 0 0 1-1-1V5a1 1 0 0 1 1-1Z" fill="#000"/></svg>
